X:1
T:Jerusalem (Praetorius), 10.6.10.6.76.76
T:Jerusalem (Praetorius), 10.6.10.6.76.76
T:Michael Praetorius, 1610
T:Public Domain Courtesy of the Cyber Hymnal™
C:Michael Praetorius, 1610
Z:Public Domain
Z:Courtesy of the Cyber Hymnal™
%%score ( 1 2 ) ( 3 4 )
L:1/8
Q:1/4=117
M:4/4
K:D
V:1 treble 
V:2 treble 
V:3 bass 
V:4 bass 
V:1
|: [Fd]4 [DA]4 | [CF]2 D4 [DF]2 | [DG]2 [DA]2 [DB]2 [DB]2 | [DA]4 z2 [DB]2 | %4
 [CA]2 E2 [DF]2 [B,^G]2 | [EA]8 :| z2 [GB]2 [GB]2 [FB]2 | [Fd]2 [DB]2 A4 | %8
 [DF]2 [DA]2 [DB]2 [CA]2 | [DG]2 [DF]2 [CE]4 | [Dd]4 [DB]2 [CA]2 | [DG]2 [DF]2 E2 (F^G) | %12
 [EA]2 [DF]2 [DG]2 [DF]2 | [DE]2 [CE]2 D4 |] %14
V:2
|: x8 | x2 D4 x2 | x8 | x8 | x2 E2 x4 | x8 :| x8 | x4 (D2 C2) | x8 | x8 | x8 | x4 E2 D2 | x8 | %13
 x4 D4 |] %14
V:3
|: [D,A,]4 [F,A,]4 | A,2 [D,F,]4 [D,A,]2 | [B,,B,]2 [F,,A,]2 G,2 G,2 | [D,F,]4 z2 [G,,G,]2 | %4
 [A,,E,]2 [C,A,]2 A,2 [B,,D]2 | [A,,C]8 :| z2 [G,,D]2 [G,D]2 [E,G,]2 | [D,A,]2 (G,F,) (E,2 A,2) | %8
 [D,A,]2 [F,,A,]2 [G,,G,]2 [A,,E,]2 | B,2 [D,A,]2 [A,,A,]4 | [B,,F,]4 [G,,G,]2 [A,,E,]2 | %11
 [B,,B,]2 [D,A,]2 [C,A,]2 [B,,D]2 | [A,,C]2 [D,A,]2 [G,,B,]2 [D,A,]2 | [A,,A,]2 [A,,E,]2 [D,F,]4 |] %14
V:4
|: x8 | A,2 x6 | x4 (G,,A,,) (B,,C,) | x8 | x4 (D,C,) x2 | x8 :| x8 | x2 G,,2 A,,4 | x8 | %9
 (B,,C,) x6 | x8 | x8 | x8 | x8 |] %14

